X: 2217
T: Autumn Leaves
R: reel
M: 4/4
K: Edorian
E2BE GEBG|DEBG AFDF|E2BE GABc|dBAF AFDF|
E2BE GEBG|DEBG AFDF|E2EF GABc|dBAF AFDF|
Be (3eee gefd|Beed BA (3FGA|Beef g2fe|dBAF AFDF|
Be (3eee gefd|Beed (3ABc de|f2fe (3def dc|dBAF AFDF|

